X: 7
T: Ashokan Farewell
R: waltz
M: 3/4
L: 1/8
K: Dmaj
Ac|:d3 c BA|F4 EF|G3 F ED|B2 d3 B|
A2 d2 f2|A2 d2 f2|1 f3 g f2|e4 Ac :|2 e2 d2 c2|d4 FG||
|A3 F D2|d4 A2|B3 c d2|A F3 E2|
F3 E D2|B4 G2|A6|A4 FE|D2 F2 A2|=c6|
B3 ^c d2|AF3 D2|A2 d2 f2|A2 d2 f2|e3d c2|d4 Ac :||


Tune 4997	Setting 4997

